img/feelstheme/tip.svg

<svg height="20" viewBox="0 0 20 20" width="20" xmlns="http://www.w3.org/2000/svg"><path d="m8.80620903 13.7119009c.22577556.0536437.38267855.0968159.54216786.1279549 1.13491251.2217396 2.28218191.3401416 3.43989221.3224135.8039603-.0124005 1.6135721-.0144214 2.4088155-.1111454.7615255-.0925905 1.519411-.2632584 2.2563187-.472873.4642911-.1319966.8981212-.3803744 1.3226597-.6148819.1494314-.0825783.309687-.2706068.3276954-.4251999.0461705-.3972758.0154221-.8027268.0154221-1.2336218-.1995293.1030621-.3677354.2014395-.5454247.2798843-.9780095.4318135-2.0151211.6609016-3.0752221.7972154-1.2432503.1598289-2.4930143.1837113-3.7453645.126026-.0991421-.0045009-.2104493.0035824-.298384.0427129-.6913119.3068898-1.3773554.6245267-2.06723045.9345396-.16820615.0755972-.34436281.1351197-.58134572.2269754m-7.3611261-2.3168757c.08304938.2457139.16322509.430252.2072882.6225059.14540828.6344471.58747624.9913064 1.18759668 1.2100148.95511585.3480412 1.94749378.3819359 2.94427802.2833748 1.45963849-.1443053 2.84906338-.545439 4.18005674-1.137357 1.03500423-.4601969 1.97335693-1.055238 2.77463503-1.8387669.9339464-.91322914 1.0848147-1.84593167.4951353-2.78488039-.3637123.39350972-.7093203.82670108-1.1168083 1.1967876-.9795422.88934665-2.14817256 1.49449189-3.39094391 1.97425399-1.46806796.5668414-2.99035271.9007368-4.57394266.9325189-.91047801.0182792-1.80812024-.0880896-2.7072951-.4584517m11.37958617 3.6020284c-1.6564857.0234232-3.29889029-.1598288-4.87098551-.7048086-.47195425-.1636868-.89563066-.1497247-1.35781439-.0739438-1.18836299.1948259-2.37979123.2159527-3.5557016-.0672383-.60395201-.1454076-1.19803771-.359615-1.60993203-.8387342-.21753767-.2530624-.403848-.5515015-.52186051-.8586669-.27472393-.7155557-.4787553-1.4560043-.75003081-2.1729378-.30365232-.80226748-.15173037-1.53279567.29493549-2.23117437.57282046-.89559284 1.39545961-1.54602288 2.30689552-2.09458497 1.72574138-1.03870398 3.61106786-1.65900536 5.63097841-1.88322506 1.18692614-.13172104 2.36935023-.11031867 3.50876483.30624682.8367202.3058794 1.4294648.83551923 1.6883835 1.68196928.1321893.43190538.2993418.85407407.4300943 1.28634688.0497147.16451351.1375535.20998207.3006828.21916764 1.1070378.06255371 2.1986536.21714681 3.2609577.53322219.6491646.19326435 1.2754356.4312624 1.8083119.85333923.3915869.31019662.6053888.69902169.6028025 1.19348076-.0034484.6736696-.0288326 1.3486251.0059389 2.0205493.0409021.789867-.3518343 1.300952-1.02418 1.6748046-.667173.3709132-1.387988.6068904-2.1326546.7739759-1.3162418.2954078-2.6539404.4051754-4.0155864.3822114" fill="#1d1d1b" fill-rule="evenodd"/></svg>

<svg xmlns="http://www.w3.org/2000/svg" width="20" height="20" viewBox="0 0 20 20">
  <path fill="#1D1D1B" fill-rule="evenodd" d="M8.80620903,13.7119009 C9.03198459,13.7655446 9.18888758,13.8087168 9.34837689,13.8398558 C10.4832894,14.0615954 11.6305588,14.1799974 12.7882691,14.1622693 C13.5922294,14.1498688 14.4018412,14.1478479 15.1970846,14.0511239 C15.9586101,13.9585334 16.7164956,13.7878655 17.4534033,13.5782509 C17.9176944,13.4462543 18.3515245,13.1978765 18.776063,12.963369 C18.9254944,12.8807907 19.08575,12.6927622 19.1037584,12.5381691 C19.1499289,12.1408933 19.1191805,11.7354423 19.1191805,11.3045473 C18.9196512,11.4076094 18.7514451,11.5059868 18.5737558,11.5844316 C17.5957463,12.0162451 16.5586347,12.2453332 15.4985337,12.381647 C14.2552834,12.5414759 13.0055194,12.5653583 11.7531692,12.507673 C11.6540271,12.5031721 11.5427199,12.5112554 11.4547852,12.5503859 C10.7634733,12.8572757 10.0774298,13.1749126 9.38755475,13.4849255 C9.2193486,13.5605227 9.04319194,13.6200452 8.80620903,13.7119009 M1.44508293,11.3950252 C1.52813231,11.6407391 1.60830802,11.8252772 1.65237113,12.0175311 C1.79777941,12.6519782 2.23984737,13.0088375 2.83996781,13.2275459 C3.79508366,13.5755871 4.78746159,13.6094818 5.78424583,13.5109207 C7.24388432,13.3666154 8.63330921,12.9654817 9.96430257,12.3735637 C10.9993068,11.9133668 11.9376595,11.3183257 12.7389376,10.5347968 C13.672884,9.62156766 13.8237523,8.68886513 13.2340729,7.74991641 C12.8703606,8.14342613 12.5247526,8.57661749 12.1172646,8.94670401 C11.1377224,9.83605066 9.96909204,10.4411959 8.72632069,10.920958 C7.25825273,11.4877994 5.73596798,11.8216948 4.15237803,11.8534769 C3.24190002,11.8717561 2.34425779,11.7653873 1.44508293,11.3950252 M12.8246691,14.9970536 C11.1681834,15.0204768 9.52577881,14.8372248 7.95368359,14.292245 C7.48172934,14.1285582 7.05805293,14.1425203 6.5958692,14.2183012 C5.40750621,14.4131271 4.21607797,14.4342539 3.0401676,14.1510629 C2.43621559,14.0056553 1.84212989,13.7914479 1.43023557,13.3123287 C1.2126979,13.0592663 1.02638757,12.7608272 0.908375058,12.4536618 C0.633651131,11.7381061 0.429619762,10.9976575 0.158344252,10.280724 C-0.145308067,9.47845652 0.0066138816,8.74792833 0.453279737,8.04954963 C1.0261002,7.15395679 1.84873935,6.50352675 2.76017526,5.95496466 C4.48591664,4.91626068 6.37124312,4.2959593 8.39115367,4.0717396 C9.57807981,3.94001856 10.7605039,3.96142093 11.8999185,4.37798642 C12.7366387,4.68386582 13.3293833,5.21350565 13.588302,6.0599557 C13.7204913,6.49186108 13.8876438,6.91402977 14.0183963,7.34630258 C14.068111,7.51081609 14.1559498,7.55628465 14.3190791,7.56547022 C15.4261169,7.62802393 16.5177327,7.78261703 17.5800368,8.09869241 C18.2292014,8.29195676 18.8554724,8.52995481 19.3883487,8.95203164 C19.7799356,9.26222826 19.9937375,9.65105333 19.9911512,10.1455124 C19.9877028,10.819182 19.9623186,11.4941375 19.9970901,12.1660617 C20.0379922,12.9559287 19.6452558,13.4670137 18.9729101,13.8408663 C18.3057371,14.2117795 17.5849221,14.4477567 16.8402555,14.6148422 C15.5240137,14.91025 14.1863151,15.0200176 12.8246691,14.9970536"/>
</svg>
